dist/img/svg/employees.svg

<svg width="32" height="32" viewBox="0 0 32 32" fill="none" xmlns="http://www.w3.org/2000/svg">
<path d="M12.2115 14.4933C12.0781 14.48 11.9181 14.48 11.7715 14.4933C8.59812 14.3866 6.07812 11.7866 6.07812 8.58663C6.07812 5.31996 8.71812 2.66663 11.9981 2.66663C15.2648 2.66663 17.9181 5.31996 17.9181 8.58663C17.9048 11.7866 15.3848 14.3866 12.2115 14.4933Z" stroke="currentColor" stroke-width="1.5" stroke-linecap="round" stroke-linejoin="round"/>
<path d="M21.8804 5.33337C24.467 5.33337 26.547 7.42671 26.547 10C26.547 12.52 24.547 14.5734 22.0537 14.6667C21.947 14.6534 21.827 14.6534 21.707 14.6667" stroke="currentColor" stroke-width="1.5" stroke-linecap="round" stroke-linejoin="round"/>
<path d="M5.545 19.4134C2.31833 21.5734 2.31833 25.0934 5.545 27.24C9.21167 29.6934 15.225 29.6934 18.8917 27.24C22.1183 25.08 22.1183 21.56 18.8917 19.4134C15.2383 16.9734 9.225 16.9734 5.545 19.4134Z" stroke="currentColor" stroke-width="1.5" stroke-linecap="round" stroke-linejoin="round"/>
<path d="M24.4531 26.6666C25.4131 26.4666 26.3198 26.08 27.0665 25.5066C29.1465 23.9466 29.1465 21.3733 27.0665 19.8133C26.3331 19.2533 25.4398 18.88 24.4931 18.6666" stroke="currentColor" stroke-width="1.5" stroke-linecap="round" stroke-linejoin="round"/>
</svg>

<svg width="32" height="32" viewBox="0 0 32 32" fill="none" xmlns="http://www.w3.org/2000/svg"><path d="M12.211 14.493a2.43 2.43 0 00-.44 0 5.893 5.893 0 01-5.693-5.906c0-3.267 2.64-5.92 5.92-5.92a5.924 5.924 0 015.92 5.92c-.013 3.2-2.533 5.8-5.707 5.906zm9.669-9.16A4.663 4.663 0 0126.547 10c0 2.52-2 4.573-4.493 4.667a1.51 1.51 0 00-.347 0M5.545 19.413c-3.227 2.16-3.227 5.68 0 7.827 3.667 2.453 9.68 2.453 13.347 0 3.226-2.16 3.226-5.68 0-7.827-3.654-2.44-9.667-2.44-13.347 0zm18.908 7.254c.96-.2 1.867-.587 2.614-1.16 2.08-1.56 2.08-4.134 0-5.694-.734-.56-1.627-.933-2.574-1.146" stroke="currentColor" stroke-width="1.5" stroke-linecap="round" stroke-linejoin="round"/></svg>
